X:18
T:Dowd's #9 (reel)  
T:Summer in Ireland   
B:BSMI4.16
F:file ID bsmi.4/18dowds
Z:bill@capeirish.com
L:1/8
R:reel
M:C
Q:180
K:D
DF~F2 GFEF|D2FA dABG|F2AF GFGB|AFDB, A,B,CE|
DF~F2 GFEF|D2FA d3A|F2AF GFGB|AFEG FDD2 ||
fd~d2 g2ag|fd~d2 cdeg|fd~d2 gfec|dcde fdde|
fgaf gfeg|fedf ecAF|GABG FAdB|AFDB, A,B,CE ||

